src/sources/forus-webshop/resources/_webshop-common/assets/img/icon-pre-check-totals-inactive.svg

<svg width="20" height="20" viewBox="0 0 20 20" fill="none" xmlns="http://www.w3.org/2000/svg">
<path d="M9.99984 13.3333C9.3368 13.3333 8.70091 13.0699 8.23207 12.6011C7.76323 12.1323 7.49984 11.4964 7.49984 10.8333C7.49984 9.9 8.00817 9.08333 8.74984 8.65833L16.8415 3.975L12.2332 11.9583C11.8165 12.775 10.9748 13.3333 9.99984 13.3333ZM9.99984 2.5C11.5082 2.5 12.9165 2.91667 14.1415 3.6L12.3915 4.60833C11.6665 4.325 10.8332 4.16667 9.99984 4.16667C8.23173 4.16667 6.53604 4.86905 5.28579 6.11929C4.03555 7.36953 3.33317 9.06522 3.33317 10.8333C3.33317 12.675 4.07484 14.3417 5.28317 15.5417H5.2915C5.6165 15.8667 5.6165 16.3917 5.2915 16.7167C4.9665 17.0417 4.43317 17.0417 4.10817 16.725C2.59984 15.2167 1.6665 13.1333 1.6665 10.8333C1.6665 8.6232 2.54448 6.50358 4.10728 4.94078C5.67008 3.37797 7.7897 2.5 9.99984 2.5ZM18.3332 10.8333C18.3332 13.1333 17.3998 15.2167 15.8915 16.725C15.5665 17.0417 15.0415 17.0417 14.7165 16.7167C14.3915 16.3917 14.3915 15.8667 14.7165 15.5417C15.9248 14.3333 16.6665 12.675 16.6665 10.8333C16.6665 10 16.5082 9.16667 16.2165 8.41667L17.2248 6.66667C17.9165 7.91667 18.3332 9.31667 18.3332 10.8333Z" fill="#282B39"/>
</svg>

<svg width="20" height="20" fill="none" xmlns="http://www.w3.org/2000/svg"><path d="M10 13.333a2.5 2.5 0 0 1-2.5-2.5c0-.933.508-1.75 1.25-2.175l8.091-4.683-4.608 7.983A2.505 2.505 0 0 1 10 13.333ZM10 2.5c1.508 0 2.916.417 4.142 1.1l-1.75 1.008A6.664 6.664 0 0 0 10 4.167a6.667 6.667 0 0 0-6.667 6.666 6.61 6.61 0 0 0 1.95 4.709h.008a.83.83 0 0 1 0 1.175.848.848 0 0 1-1.183.008A8.333 8.333 0 0 1 10 2.5Zm8.333 8.333c0 2.3-.933 4.384-2.441 5.892a.838.838 0 0 1-1.175-.008.83.83 0 0 1 0-1.175 6.625 6.625 0 0 0 1.95-4.709c0-.833-.159-1.666-.45-2.416l1.008-1.75c.691 1.25 1.108 2.65 1.108 4.166Z" fill="#282B39"/></svg>
